!!! OTL: Berkowitz311
!!! Chapter: 1
!!! Section: III
!!! Page: 75
!!! Mode: 
!!! Encoder: DJB
**kern
*staff1
*I"Piano
=1-
*clefF4
*k[b-]
*d:
*M3/4
4r
4r
4A\
=2
2d\
4G#\
=3
2A\
4F#\
=4
2G\
4E\
=5
2F\
4C#/
=6
4D\
4F\
4A\
=7
4d\
4c\
4B-\
=8
2A\
8G#\L
8Bn\J
=9
4A\
4r
4A\
=10
2d\
4G#\
=11
2A\
4F#\
=12
!!linebreak:original
4G\
4E\
4F\
=13
4C/
4D\
4GG#/
=14
2AA/
4B-\
=15
4.A\
8G\
8E\L
8F\J
=16
4D\
4r
4A\
=17
4d\
2r
==
*-
